X: 0903
T: GRAND MARCH IN NATHALIE
B: Oliver Ditson "The Boston Collection of Instrumental Music" 1910 p.90 #3
F: http://conquest.imslp.info/files/imglnks/usimg/8/8f/IMSLP175643-PMLP309456-bostoncollection00bost_bw.pdf
%: 2012 John Chambers <jc:trillian.mit.edu>
M: 4/4
L: 1/8
K: F
C>F |\
A6 (3CFA | c6 (3FAc | f3e gfed | c>dB>c A2C>F |\
A6 (3CFA | c6 (3Gce | g3f e2ef | d>cd>e c2 :|
|: B>A |\
G2AB c2de | f2c2 f4 | f2e>f g4 | g2f>g afcA |\
G2AB c2de | f2c2 f4 | g2g2 fede | f2f2 f2 :|
K: Bb
|: F>B |\
d2d2 c2d2 | e6 A2 | B2B2 c2c2 | d2f2 c2F>B |\
d2d2 c2d2 | e6 A2 | BFBc decd | c4 B2 :|

%%sep 1 1 500
%%sep 1 1 500
